assets/svg/app/mint-circle.svg

<svg width="62" height="62" viewBox="0 0 62 62" fill="none" xmlns="http://www.w3.org/2000/svg">
<g filter="url(#filter0_d-476054)">
<circle cx="31" cy="31" r="16" fill="#09092F"/>
<circle cx="31" cy="31" r="15" stroke="#00D1FF" stroke-width="2"/>
</g>
<path d="M27.4777 34.5003C27.5498 34.671 27.6292 34.8377 27.7157 35.0002H25V34.5003H27.4777ZM25 27.7504H28.8376C28.6764 27.9084 28.524 28.0753 28.3809 28.2503H25V27.7504ZM27.379 29.9995C27.3185 30.1629 27.2647 30.3296 27.2182 30.4993H25V29.9995H27.379ZM25 25.5H33.7496V25.9998H25V25.5ZM30.2501 32.1252C30.2501 30.5397 31.5396 29.2503 33.125 29.2503C34.7105 29.2503 36 30.5397 36 32.1252C36 33.7107 34.7105 35.0002 33.125 35.0002C31.5396 35.0002 30.2501 33.7107 30.2501 32.1252ZM25 32.7497V32.2499H27.0016C27.0044 32.3971 27.0126 32.5667 27.0307 32.7497H25Z" stroke="#00D1FF"/>
<defs>
<filter id="filter0_d-476054" x="0" y="0" width="62" height="62" filterUnits="userSpaceOnUse" color-interpolation-filters="sRGB">
<feFlood flood-opacity="0" result="BackgroundImageFix"/>
<feColorMatrix in="SourceAlpha" type="matrix" values="0 0 0 0 0 0 0 0 0 0 0 0 0 0 0 0 0 0 127 0"/>
<feOffset/>
<feGaussianBlur stdDeviation="7.5"/>
<feColorMatrix type="matrix" values="0 0 0 0 0.266667 0 0 0 0 0.937255 0 0 0 0 0.756863 0 0 0 0.6 0"/>
<feBlend mode="normal" in2="BackgroundImageFix" result="effect1_dropShadow"/>
<feBlend mode="normal" in="SourceGraphic" in2="effect1_dropShadow" result="shape"/>
</filter>
</defs>
</svg>

<svg width="62" height="62" fill="none" xmlns="http://www.w3.org/2000/svg">
    <g filter="url(#a)">
        <circle cx="31" cy="31" r="16" fill="#09092F"/>
        <circle cx="31" cy="31" r="15" stroke="#00D1FF" stroke-width="2"/>
    </g>
    <path d="M27.478 34.5c.072.171.151.338.238.5H25v-.5h2.478ZM25 27.75h3.838a6.16 6.16 0 0 0-.457.5H25v-.5ZM27.379 30c-.06.163-.114.33-.16.5H25V30h2.379ZM25 25.5h8.75v.5H25v-.5Zm5.25 6.625a2.878 2.878 0 0 1 2.875-2.875A2.878 2.878 0 0 1 36 32.125 2.878 2.878 0 0 1 33.125 35a2.878 2.878 0 0 1-2.875-2.875ZM25 32.75v-.5h2.002c.002.147.01.317.029.5H25Z" stroke="#00D1FF"/>
    <defs>
        <filter id="a" x="0" y="0" width="62" height="62" filterUnits="userSpaceOnUse" color-interpolation-filters="sRGB">
            <feFlood flood-opacity="0" result="BackgroundImageFix"/>
            <feColorMatrix in="SourceAlpha" values="0 0 0 0 0 0 0 0 0 0 0 0 0 0 0 0 0 0 127 0"/>
            <feOffset/>
            <feGaussianBlur stdDeviation="7.5"/>
            <feColorMatrix values="0 0 0 0 0.266667 0 0 0 0 0.937255 0 0 0 0 0.756863 0 0 0 0.6 0"/>
            <feBlend in2="BackgroundImageFix" result="effect1_dropShadow"/>
            <feBlend in="SourceGraphic" in2="effect1_dropShadow" result="shape"/>
        </filter>
    </defs>
</svg>
